X: 26
M: 2/4
L: 1/16
K: C
V: 1
|:\
c4 B2 (3(Bcd) | c2 (3(cde) d2 (3(def) | {f}e2dc (ed)cB | c2G2E2C2 |\
c4 B2 (3(Bcd) | c2 (3(cde) d2 (3(def) | {f}e2dc (ed)cB | c4 c4 :|
|:\
g4 f2e2 | a6 bc' | g2g2f2e2 | d2de d2d2 |\
g4 f2e2 | a6 bc' | g2g2f2e2 | {e4}d8 |
c4 B2 (3(Bcd) | c2 (3(cde) d2 (3(def) | {f}e2dc (ed)cB | c2G2E2C2 |\
c4 B2 (3(Bcd) | c2 (3(cde) d2 (3(def) | {f}e2dc (ed)cB | c4 c4 :|
M: 3/8
L: 1/8
"Menuet"\
g4 {f}ed/c/ | gf {e2}d4 | (eg)(gc')(c'e) | {e}d2 (cB)AG |\
g4 {f}ed/c/ | gf {e}d3 f | (e/f/g/a/) c2B2 | {B2}c6 |]
d4 {c}BA/G/ | (e2c2) (e/c/)(e/c/) | (f2d2) (f/d/)(f/d/) | g4 f2 |\
(eg)(ag)(c'g) | (eg)(ag)(c'g) | (eg)(ag)(fe) | {f}d2(cB)AG |]
g4 {f}ed/c/ | gf {e2}d4 | (eg)(gc')(c'e) | {e}d2 (cB)AG |\
g4 {f}ed/c/ | gf {e2}d4 | (e/f/g/a/) c2B2 | c6 |]
V: 2 clef=bass middle=d
|:\
c2e2g2G2 | c2e2g2G2 | c2e2f2g2 | c'2g2e2c2 | e2c2g2G2 | c2e2g2G2 | c2e2f2g2 |
c'geg c4 :||: c2c'2b2c'2 | f2F2f4 | c'2c2B2c2 | g2G2z4 | c'2c2B2c2 | f2F2f4 | c'2c2B2c2 | GgdB G4 |
c2e2g2G2 | c2e2g2G2 | c2e2f2g2 | c'2g2e2c2 | e2c2g2G2 | c2e2g2G2 | c2e2f2g2 | c'geg c4 :|
M: 3/8
L: 1/8
"Menuet"\
c2e2c2 | d2B2G2 | c2e2c2 | g2G2z2 |c2e2c2 | d2B2G2 | c2g2G2 | c2G2C2 |]
c2e2c2 | d2B2G2 | c2e2c2 | g2G2z2 |c2e2c2 | d2B2G2 | c2g2G2 | c2C2z2 |]


